images/automated-payouts.svg

<svg height="64" viewBox="0 0 64 64" width="64" xmlns="http://www.w3.org/2000/svg"><path d="m19 2c-1.648438 0-3 1.351562-3 3v7h-13c-1.648438 0-3 1.351562-3 3v34c0 1.648438 1.351562 3 3 3h23v2h-2.34375c-1.335938 0-2.589844.519531-3.535156 1.464844l-2.828125 2.828125c-.285157.285156-.371094.714843-.21875 1.089843.15625.371094.523437.617188.925781.617188h28c.402344 0 .769531-.246094.925781-.617188.152344-.375.066407-.804687-.21875-1.089843l-2.828125-2.828125c-.945312-.945313-2.199218-1.464844-3.535156-1.464844h-2.34375v-2h23c1.648438 0 3-1.351562 3-3v-34c0-1.648438-1.351562-3-3-3h-13v-7c0-1.648438-1.351562-3-3-3zm0 2h26c.550781 0 1 .449219 1 1v33h-2c0-.550781-.449219-1-1-1h-2c-.550781 0-1 .449219-1 1h-16c0-.550781-.449219-1-1-1h-2c-.550781 0-1 .449219-1 1h-2v-33c0-.550781.449219-1 1-1zm13 34c3.722656 0 6.972656-1.640625 8.691406-4.0625.101563.03125.199219.0625.308594.0625h2c.550781 0 1-.449219 1-1s-.449219-1-1-1h-1.328125c.207031-.640625.328125-1.308594.328125-2s-.121094-1.359375-.328125-2h1.328125c.550781 0 1-.449219 1-1s-.449219-1-1-1h-2c-.109375 0-.207031.03125-.308594.0625-1.71875-2.421875-4.96875-4.0625-8.691406-4.0625s-6.972656 1.640625-8.691406 4.0625c-.101563-.03125-.199219-.0625-.308594-.0625h-2c-.550781 0-1 .449219-1 1s.449219 1 1 1h1.328125c-.207031.640625-.328125 1.308594-.328125 2 0 .683594.121094 1.351562.328125 2h-1.328125c-.550781 0-1 .449219-1 1s.449219 1 1 1h2c.105469 0 .203125-.03125.296875-.0625.519531.738281 1.179687 1.414062 1.972656 1.992188 1.84375 1.335937 4.234375 2.070312 6.730469 2.070312zm-10-32c-.550781 0-1 .449219-1 1v5c0 .550781.449219 1 1 1s1-.449219 1-1v-5c0-.550781-.449219-1-1-1zm20 0c-.550781 0-1 .449219-1 1v5c0 .550781.449219 1 1 1s1-.449219 1-1v-5c0-.550781-.449219-1-1-1zm-10 2c-2.207031 0-4 1.792969-4 4s1.792969 4 4 4 4-1.792969 4-4-1.792969-4-4-4zm0 2c1.101562 0 2 .898438 2 2s-.898438 2-2 2-2-.898438-2-2 .898438-2 2-2zm-29 4h13v2h-14v-1c0-.550781.449219-1 1-1zm45 0h13c.550781 0 1 .449219 1 1v29h-5c-.550781 0-1 .449219-1 1s.449219 1 1 1h5v3c0 .550781-.449219 1-1 1h-58c-.550781 0-1-.449219-1-1v-3h51.082031c.550781 0 1-.449219 1-1s-.449219-1-1-1h-51.082031v-26h14v20h-5c-.550781 0-1 .449219-1 1s.449219 1 1 1h42c.550781 0 1-.449219 1-1s-.449219-1-1-1h-5v-20h3c.550781 0 1-.449219 1-1s-.449219-1-1-1h-3zm-27 2c-.550781 0-1 .449219-1 1s.449219 1 1 1h2c.550781 0 1-.449219 1-1s-.449219-1-1-1zm20 0c-.550781 0-1 .449219-1 1s.449219 1 1 1h2c.550781 0 1-.449219 1-1s-.449219-1-1-1zm14 0c-.550781 0-1 .449219-1 1s.449219 1 1 1h4c.550781 0 1-.449219 1-1s-.449219-1-1-1zm-34 5c-.550781 0-1 .449219-1 1s.449219 1 1 1h2c.550781 0 1-.449219 1-1s-.449219-1-1-1zm20 0c-.550781 0-1 .449219-1 1s.449219 1 1 1h2c.550781 0 1-.449219 1-1s-.449219-1-1-1zm-9 3c4.410156 0 8 2.691406 8 6s-3.589844 6-8 6c-2.078125 0-4.050781-.601562-5.550781-1.691406-1.578125-1.144532-2.449219-2.675782-2.449219-4.308594 0-3.308594 3.589844-6 8-6zm-4 28h8v2h-8zm-4.34375 4h16.6875c.789062 0 1.5625.320312 2.121094.878906l1.121094 1.121094h-23.171876l1.121094-1.121094c.558594-.558594 1.332032-.878906 2.121094-.878906zm0 0" fill="#003e6b"/></svg>

<?xml version="1.0" encoding="UTF-8"?>
<svg xmlns="http://www.w3.org/2000/svg" viewBox="0 0 64 64" width="64px" height="64px">
<g id="surface12909499">
<path style=" stroke:none;fill-rule:nonzero;fill:rgb(0%,24.313726%,41.960785%);fill-opacity:1;" d="M 19 2 C 17.351562 2 16 3.351562 16 5 L 16 12 L 3 12 C 1.351562 12 0 13.351562 0 15 L 0 49 C 0 50.648438 1.351562 52 3 52 L 26 52 L 26 54 L 23.65625 54 C 22.320312 54 21.066406 54.519531 20.121094 55.464844 L 17.292969 58.292969 C 17.007812 58.578125 16.921875 59.007812 17.074219 59.382812 C 17.230469 59.753906 17.597656 60 18 60 L 46 60 C 46.402344 60 46.769531 59.753906 46.925781 59.382812 C 47.078125 59.007812 46.992188 58.578125 46.707031 58.292969 L 43.878906 55.464844 C 42.933594 54.519531 41.679688 54 40.34375 54 L 38 54 L 38 52 L 61 52 C 62.648438 52 64 50.648438 64 49 L 64 15 C 64 13.351562 62.648438 12 61 12 L 48 12 L 48 5 C 48 3.351562 46.648438 2 45 2 Z M 19 4 L 45 4 C 45.550781 4 46 4.449219 46 5 L 46 38 L 44 38 C 44 37.449219 43.550781 37 43 37 L 41 37 C 40.449219 37 40 37.449219 40 38 L 24 38 C 24 37.449219 23.550781 37 23 37 L 21 37 C 20.449219 37 20 37.449219 20 38 L 18 38 L 18 5 C 18 4.449219 18.449219 4 19 4 Z M 32 38 C 35.722656 38 38.972656 36.359375 40.691406 33.9375 C 40.792969 33.96875 40.890625 34 41 34 L 43 34 C 43.550781 34 44 33.550781 44 33 C 44 32.449219 43.550781 32 43 32 L 41.671875 32 C 41.878906 31.359375 42 30.691406 42 30 C 42 29.308594 41.878906 28.640625 41.671875 28 L 43 28 C 43.550781 28 44 27.550781 44 27 C 44 26.449219 43.550781 26 43 26 L 41 26 C 40.890625 26 40.792969 26.03125 40.691406 26.0625 C 38.972656 23.640625 35.722656 22 32 22 C 28.277344 22 25.027344 23.640625 23.308594 26.0625 C 23.207031 26.03125 23.109375 26 23 26 L 21 26 C 20.449219 26 20 26.449219 20 27 C 20 27.550781 20.449219 28 21 28 L 22.328125 28 C 22.121094 28.640625 22 29.308594 22 30 C 22 30.683594 22.121094 31.351562 22.328125 32 L 21 32 C 20.449219 32 20 32.449219 20 33 C 20 33.550781 20.449219 34 21 34 L 23 34 C 23.105469 34 23.203125 33.96875 23.296875 33.9375 C 23.816406 34.675781 24.476562 35.351562 25.269531 35.929688 C 27.113281 37.265625 29.503906 38 32 38 Z M 22 6 C 21.449219 6 21 6.449219 21 7 L 21 12 C 21 12.550781 21.449219 13 22 13 C 22.550781 13 23 12.550781 23 12 L 23 7 C 23 6.449219 22.550781 6 22 6 Z M 42 6 C 41.449219 6 41 6.449219 41 7 L 41 12 C 41 12.550781 41.449219 13 42 13 C 42.550781 13 43 12.550781 43 12 L 43 7 C 43 6.449219 42.550781 6 42 6 Z M 32 8 C 29.792969 8 28 9.792969 28 12 C 28 14.207031 29.792969 16 32 16 C 34.207031 16 36 14.207031 36 12 C 36 9.792969 34.207031 8 32 8 Z M 32 10 C 33.101562 10 34 10.898438 34 12 C 34 13.101562 33.101562 14 32 14 C 30.898438 14 30 13.101562 30 12 C 30 10.898438 30.898438 10 32 10 Z M 3 14 L 16 14 L 16 16 L 2 16 L 2 15 C 2 14.449219 2.449219 14 3 14 Z M 48 14 L 61 14 C 61.550781 14 62 14.449219 62 15 L 62 44 L 57 44 C 56.449219 44 56 44.449219 56 45 C 56 45.550781 56.449219 46 57 46 L 62 46 L 62 49 C 62 49.550781 61.550781 50 61 50 L 3 50 C 2.449219 50 2 49.550781 2 49 L 2 46 L 53.082031 46 C 53.632812 46 54.082031 45.550781 54.082031 45 C 54.082031 44.449219 53.632812 44 53.082031 44 L 2 44 L 2 18 L 16 18 L 16 38 L 11 38 C 10.449219 38 10 38.449219 10 39 C 10 39.550781 10.449219 40 11 40 L 53 40 C 53.550781 40 54 39.550781 54 39 C 54 38.449219 53.550781 38 53 38 L 48 38 L 48 18 L 51 18 C 51.550781 18 52 17.550781 52 17 C 52 16.449219 51.550781 16 51 16 L 48 16 Z M 21 16 C 20.449219 16 20 16.449219 20 17 C 20 17.550781 20.449219 18 21 18 L 23 18 C 23.550781 18 24 17.550781 24 17 C 24 16.449219 23.550781 16 23 16 Z M 41 16 C 40.449219 16 40 16.449219 40 17 C 40 17.550781 40.449219 18 41 18 L 43 18 C 43.550781 18 44 17.550781 44 17 C 44 16.449219 43.550781 16 43 16 Z M 55 16 C 54.449219 16 54 16.449219 54 17 C 54 17.550781 54.449219 18 55 18 L 59 18 C 59.550781 18 60 17.550781 60 17 C 60 16.449219 59.550781 16 59 16 Z M 21 21 C 20.449219 21 20 21.449219 20 22 C 20 22.550781 20.449219 23 21 23 L 23 23 C 23.550781 23 24 22.550781 24 22 C 24 21.449219 23.550781 21 23 21 Z M 41 21 C 40.449219 21 40 21.449219 40 22 C 40 22.550781 40.449219 23 41 23 L 43 23 C 43.550781 23 44 22.550781 44 22 C 44 21.449219 43.550781 21 43 21 Z M 32 24 C 36.410156 24 40 26.691406 40 30 C 40 33.308594 36.410156 36 32 36 C 29.921875 36 27.949219 35.398438 26.449219 34.308594 C 24.871094 33.164062 24 31.632812 24 30 C 24 26.691406 27.589844 24 32 24 Z M 28 52 L 36 52 L 36 54 L 28 54 Z M 23.65625 56 L 40.34375 56 C 41.132812 56 41.90625 56.320312 42.464844 56.878906 L 43.585938 58 L 20.414062 58 L 21.535156 56.878906 C 22.09375 56.320312 22.867188 56 23.65625 56 Z M 23.65625 56 "/>
</g>
</svg>
